/* XPM */
static char *e63bc2e2a01e4c26cb04668492a1fe2cRaOhKPeZSCDd30tI[] = {
/* columns rows colors chars-per-pixel */
"64 64 9 1 ",
"  c #CE8D83",
". c #BA8277",
"X c #947661",
"o c #796454",
"O c #A87762",
"+ c #988C69",
"@ c #7F7257",
"# c #7A9869",
"$ c None",
/* pixels */
"            ..  ........        ....  ..        ..  ...........X",
" .............................................................Xo",
" .OOOOO++OOOO++++OOOOOO..O.......OOXXOOOOOO+OXXXXO+OOXOOXXX@@XXo",
" .OOOO++OOOO++++OOOOOO..O......OOOXXOOOOXO++XOXO++OOOOXXXX@@XX@o",
" .+O++OOOO++O++OOOOOO.OOO....OO.XXOOOOOXOO..OOO++OO+XXXX@@@XXX@o",
" .O++OOOO++OOO++OOO..OOO....OO.XXOOOOXXO...OOO+#+O+OOXX@X@@@@X@o",
" .#+OOO.  @O++++++OO..O....O..OXXXOOXXO..OO++##+++++X.  @X@X@@@@",
" .##OO.  .O@O++#O++OOO.......OXXOOXXXO.OOO++##+++++O.  .O@XXX@@o",
" .#+++ .OOO@+##OOOOOO.......OXOOOXXOOOOOOOOO++#++OOO .OOO@XXXX@@",
" .+#++.O@O@@##++OOOO...O...OOOOOXXOXOOO.O+O+++++++OO.O@O@@XX@X@@",
" .++##@OO@@@#++O+OXXXX@@@@@@@@@@@@@@@@@@@@@@@X++OOOX@OO@@oXXX@@o",
" .O++##@@@@#++OOOXXXX@@@@@@@@@@@@@@@@@@@@@@@@@XOXOXXX@@ooX@X@@@o",
" .+OOO+++##++OOOO$$$$$$$$$$$$$$$$$$$$$$$$$$$$$$.OXX@@XXX@@XXXX@o",
" .++OOO+#+##OO+O..$$$$$$$$$$$$$$$$$$$$$$$$$$$$ .XX@@XX@@@XXXXX@o",
" .O+O++#++##++O.O..$$$$$$$$$$$$$$$$$$$$$$$$$$ .XX@XXXXX@@@XXX@o@",
" .OO+++++##++OOOOO..$$$$$$$$$$$$$$$$$$$$$$$$ .XX@@@X@@@XXXXX@oo@",
" .O+OOO+#++O++OOOO...$$$$$$$$$$$$$$$$$$$$$$ .X@@@@@@@@XXXXX@o@oo",
" .OO+O+++OOX$XXOOX.O..$$$$$$$$$$$$$$$$$$$$ .XXX@@X@$.XXXX@@X@X@o",
" .OOO++OOOXX$$XXXOOOO..$$$$$$$$$$$$$$$$$$ .OXXXXX@$$ .OX@@XXX@@o",
" .OOOO++O+XX$$$XXOOOOO..$$$$$$$$$$$$$$$$ .OX@XXX@$$$  X@XXXX@@@o",
" .OO++OOOOXX$$$$XXOOOOO..$$$$$$$$$$$$$$ .XX@XX@@$$$$  XOOXX@Xo@@",
" .+++OOOOOX@$$$$$XXOOOXX..$$$$$$$$$$$$ .XX@@@XX$$$$$  OOXX@@@@o@",
" .O+OOOOOO@@$$$$$$XXOX.....$$$$$$$$$$ .XX@@XX@$$$$$$  OX@@@@XXoo",
" .OOOOXOOO@@$$$$$$$XXOO..O..$$$$$$$$ .XOOXXXX$$$$$$$  XXX@XXXX@o",
" .OOXXOOOO@@$$$$$$$$XX....O........ .XOOXX@@$$$$$$$$  X@@XXXO.X@",
" .XXXOOOOX@@$$$$$$$$$XX....O........OOXX@@@$$$$$$$$$  @@XXXO..@@",
" .OXOOXXXX@@$$$$$$$$$$XX.OO..OOOOXOOXXXXX@$$$$$$$$$$  OXXXO+O.Oo",
" .XOOOOXXX@@$$$$$$$$$$$XOO.OOOOXXOOXXX@@@$$$$$$$$$$$  XXOO++.OOo",
" .OOXOXXXO@@$$$$$$$$$$$$..OO$$$$$$$$@XX@$$$$$$$$$$$$  OOO++##+Oo",
" .OOOXXOOX@@$$$$$$$$$$$$...O$$$$$$$$@@XX$$$$$$$$$$$$  .O++##++Xo",
" .OXXXOOXX@@$$$$$$$$$$$$..OX$$$$$$$$XX@@$$$$$$$$$$$$  ++##OO++Oo",
" .OXXXXXXO@@$$$$$$$$$$$$.OO+$$$$$$$$@XXX$$$$$$$$$$$$  +++#+OO++o",
" .XXXXXOOO@@$$$$$$$$$$$$O++O$$$$$$$$X@@X$$$$$$$$$$$$  +OO+++O++o",
" .XOOXXXOO@@$$$$$$$$$$$$++OO$$$$$$$$@@XX$$$$$$$$$$$$  OO++OOO+Oo",
" .OOXXOOOO@@$$$$$$$$$$$$OOXO$$$$$$$$XXOO$$$$$$$$$$$$  ++OOOO+.+o",
" .OOXOOOOO@@$$$$$$$$$$$$OXXX$$$$$$$$XOOO$$$$$$$$$$$$  +OOOO+..+o",
" .OXOOOO..@@$$$$$$$$$$$.XOX@XXXXXX@XXXOX.$$$$$$$$$$$  O+++O..+O@",
" .OOOO..O.@@$$$$$$$$$$ .OX@@XXXX@@XXOOXX..$$$$$$$$$$  +O+++.+OO@",
" .OOOOOOOO@@$$$$$$$$$ .XXO@XXX@@XXOOOXOOO..$$$$$$$$$  OOO+.++OO@",
" .OOOO.OOO@@$$$$$$$$ .XXO@XXXXX@@XXOOOOO++..$$$$$$$$  OO+..+OOX@",
" .O...OOOO@@$$$$$$$ .OOOXX@@$$$$$$$$@@OO..+..$$$$$$$  O+..+OOOX@",
" ....OOOO+@@$$$$$$ .XXOOO@@$$$$$$$$$$@@..++...$$$$$$  ++.+O+OXO@",
" ..OOOO+##@@$$$$$ .XXOXX@@$$$$$$$$$$$$@@.O..O..$$$$$  +.++OOXXX@",
" ...OO+#+O@@$$$$ .OXOOO@@$$$$$$$$$$$$$$@@OO.OO..$$$$  .++OOOXOX@",
"......O+OO@@$$$ .XXOOO@@$$$$$$$$$$$$$$$$@@.OOOO..$$$  +OOOOXOOXo",
".....OOOOOX@$$ .XXOOO@@$$$$$$$$$$$$$$$$$$@@OOOOO..$$ .OO+OXXXO@o",
" ...OOO+++XX$ .XOOOO@@$$$$$$$$$$$$$$$$$$$$@@OOOOO..$.O++XOXXOXX@",
" ..OO##++OOX..OOOOO@@$$$$$$$$$$$$$$$$$$$$$$@@OOOO+..O++OOXX@OOX@",
" ..O+#+OOOOOOOXXOO@@$$$$$$$$$$$$$$$$$$$$$$$$@@O+++OO+OOXXX@X+OOo",
" .O+#+O+OOOOOXXOO@@$$$$$$$$$$$$$$$$$$$$$$$$$$@@O+OOO++XXXX@O++Oo",
" .+##+++++OXXOOX@@$$$$$$$$$$$$$$$$$$$$$$$$$$$$@@OO++OXOXX@XX+OXo",
" .##+#++XX+O+OXX@$$$$$$$$$$$$$$$$$$$$$$$$$$$$$$@O++OOOO@@X@@OX@o",
"..X++XX.  @+XXOOX.                            .OXXOOX.  @@@XXO@o",
"..@X++.  .O@XOOXXO.                          .OXXOO@.  .O@XX@@@o",
"..@@X@ .OOOo@XXOOO++OOXXXOOO.+..++OO+O+OOOOX@XXXO+XX .OOOo@@X@@o",
"..@X@X.O@O@o@@XXO++OXXXOOXO++..+O++O++++O+XO@@X++XXX.O@O@o@o@@o@",
"..X@@X@OO@oo@@@@X@XXX@@++OOOO++OOOO+++OO+++OX@X@@XX@@OO@ooo@@@o@",
"..X@XXX@ooo@@o@@@XXX@@++OOOO++OOOO+++OO++OO+XX@@XX@oo@ooo@@@@o@o",
" .XXXX@XXX@@oo@@oo@@XXOO++O+OOOOO+OOO+++OOX@@@@@@@XX@ooo@@@oo@@@",
" .XXXXXXX@o@o@@oo@@XX@XXO++OOOO+O.OO++OOXX@@XX@@X@@XX@o@@@@@oo@@",
"..@X@XX@@@@ooooo@ooo@@@oo@XOO+++OO..OX@@X@oo@XXX@@@@o@@@oo@@@@oo",
"..@@XX@@oo@@@ooooo@@o@oo@o@oXX+++..OXXX@@oo@@@X@o@@@@oooo@@@@oo@",
".XX@@@ooo@@@ooo@@@@ooo@@ooo@@@XX@@oo@@@oo@@@@@oo@@ooooo@@@oo@@@@",
"XXXX@o@ooo@o@@oo@@ooo@@ooo@@ooo@@oo@@@oo@@ooooo@@ooooooo@@@@o@@@"
};
