/* XPM */
static char *a36b391e15b84dd4937ce3c6f742cc0afc45VlSgH5dfJXmE[] = {
/* columns rows colors chars-per-pixel */
"64 64 5 1 ",
"  c #100C1C",
". c #06030B",
"X c #000001",
"o c #271E3D",
"O c #3B2754",
/* pixels */
"  .. ..XXXXXX......X..XX..X...... ..    oOOo   .. ..  o  ooOOOoo",
"    ..XXXXXX.X...XX..XX....XX.....    ooOOo  .....  o  ooOOOooo ",
". ..XX.X..XXX.....XX...X.XXX.. .  o  OOOo   ....   ooooOOOoooo  ",
" .XX.....XX.XX....X...  XX.....  o  OOOo     .X..   ooOOOoooo   ",
".XXXX...X..   .. .     .XXX..   oooOoo   .. .XX.   oOOoooo  o ..",
"..XX........    ...   .XX...  ooOOoo    . ..XXXX   oOOOo   . ...",
"...X.... . ..  o    . ..XX.    oOo       ....X..  oOOoo  .......",
".........     oooo   ..XX.    oOo o   .   ..X...  oOoo  .... ...",
".X.X. .  o oooOOOOo ..X...   OOo ooo   . ......    oooo . .  ...",
"XXX..   ooooOOOOOo   ..X...  Oo       .......        ooo  . ..X.",
"XX..   ooOOOooOOooo   .. .  Oo .    .  ...XX.. .  . ooo    ..XX.",
"XX... ooOOoooooOOooo ..     o   .. .    .XX.XX....    o   ...X.X",
"X..  OOOooo   Oo    o    .       ....  ...XXX....XX... o....X.XX",
"X. oOOoooooo            .         .. ....XXX..XXXXXX...  .....XX",
"XX. ooOOo   o        ..  ...    ..  ....XXXXXX.X..X..X....XX.XXX",
"X... oOo        .  ... .. .   ...    ....XXXX....X.XXXXX...XXXX.",
".X   Oo       ..    ......   .X.... ...XXXX.XX.......XX..XXXXX..",
"... oO      ...      .XXX.. X..XX....XXXXX.X........XXXX..XXX...",
".. . o    .  ....   ...X...XXXX. X....XX..... .....XX..XXXXX..X.",
".        ...  ....    ..XX..XX  ..  ....X..    .......XXXXXXXX.X",
".      ...  .X..X.. .  ..XXXX..    ......     .. ........XXXXXXX",
"X..     .   XX.XXX....... .X. ..  ...X..  o     ........XXXXXXXX",
"X.  . ..  .XXXX..  ...   ..   OOo ..XX.  oOOOo   ...X.XXX..XXXXX",
".    .. ..XXX...  ..  oo    oOOo   .X..ooooOOOo .....XX..X....XX",
"  ..  ..XXX..       oOOoooOOOo    .XX.  oOOOoo   .XXXXXX.....XX.",
".. ......XXX..    ooOOooOOOOooo  .X... oOOOoo  ..XXX.... ......X",
"X......XX...  o oOOOOOOOooOo   ...... OOooo  .  ...XX.    ......",
"XXX...XX...  oooOOOOoooOOoo  .  .... OOo o  .........X. oo  . ..",
".X........ oooOOooOo     o .. ... ....   ....XX.X..   oOOOo  . .",
"...XX.... . oOOoo         .. ..  ...... ......XX..  ooOOOOOOo  .",
".XX.XXX.   oOOoo                ............XX..   ooOOooo oOo  ",
"X.XXXX..   OOOo o       .         .........XX.... ooOOoo    oo  ",
".XX....   oOoooo    .  ...      o o  ......... .  OOoo       o .",
"...  .... Oo o     ...  ...   oooo  ....X......  oOoooo       ..",
"..  .  .  oo    ..  ....    oo o .....XX..X.  .  OOoo        ...",
"   oo     o   .  ... ....  ooOo .. ..XX...XX.   oOo o       ... ",
"ooOOOoo     ...........  ooOOo    ..XXXX.XX...  oo o      .  . .",
"oOOOoo  ..     ...X...    OOo    .....XXXX..X..  o         ...  ",
"Oooo  ...     ..XX.X...  Ooo  .......XXXXXXXXX .    ..  . ..   o",
"o  oo  . .X. ....XX... .  o ........XXXXX.XXX     .....  .... oo",
"  o  ..XXX.........X.X..   ........XXX... .X..  ..XX.X.XX.X.. oo",
"    ..XXX..X...XX.XXXXX.. . ......XX....  ...... ..XXX..XX..  o ",
"  .. X..XXX.....XXXX.......... ..X ...      ......XXX.XXX.   o  ",
"   ..  XXX........X...XX..... ..XXX ...  oo   ...XXX.XX.... oo  ",
".     ..XXX.  .....X.XX.....  XX   ..  ooOOOoo  XX ... .    o . ",
" .     ..X.    .....XX.....  XX  ..   ooOOooo  X  .....    o .  ",
" .. ....     .................  ....oOOOoo o     ...            ",
" . X..      .  ........... ..  ..  oOOooo   o   ..   o          ",
".XX.   o oo  o  .  ........    .  OOooo      ...    oooO  X  X  ",
"XX.   ooooOOo    ...... ....  .  oOoo oo      . . oooOO    XXXX ",
".   oooOOOoo   .........        oOo  o         .   oOO  ..  XXXX",
" . ooOOOooo  .............      oo                oOOoo.. o XX  ",
"  oOOOOo    ...... .XX...      ooo o    .. ..       oOOooo  X . ",
" oOOooOOo  .....  XXX..        o oo      ... .       oOOo  XX ..",
"oooo  ooOoo  ..  XX.....  .       o   ..  ...    ...   o   X   .",
". o  o  oo    .. XXX...X..X.o        ..............            .",
"..     oo  .....XX.....XXX oo         .......XXX.....   ..  ..  ",
". oo  o   .... .X... .XXX. o     ...   ....X..XXXX.. .   ...... ",
" . ooo  ....  ....  .X..  oooo    ....    ..XXXXX..X.X.    .....",
".   ooo......  .   ....  oooo ooo  ..    ..XXXXX.XXXX........ ..",
"     .........    ...   oo  oooo  .  ..    ..XXXXXX......... o  ",
"      .....X.X.  .....    o   o     ..   ...XXXXXXXX.....     oo",
"  .....X..XXX... ..XX...  .. .  ...     ...XX.XX...... . . oooo ",
" . .....XXXX... ....XX...  ....  ...  ..  .   ..X..     . oooOOo"
};
